packages/icons/svg/24/Calendar.svg

<svg width="24" height="24" viewBox="0 0 24 24" fill="none" xmlns="http://www.w3.org/2000/svg">
<path fill-rule="evenodd" clip-rule="evenodd" d="M8 3C8 2.44772 7.55228 2 7 2C6.44772 2 6 2.44772 6 3L6 4.12602C4.27477 4.57006 3 6.13616 3 8V18C3 20.2091 4.79086 22 7 22H17C19.2091 22 21 20.2091 21 18V8C21 6.13616 19.7252 4.57006 18 4.12602V3C18 2.44772 17.5523 2 17 2C16.4477 2 16 2.44772 16 3V4H8V3ZM5 10V18C5 19.1046 5.89543 20 7 20H17C18.1046 20 19 19.1046 19 18V10H5Z" fill="#858585"/>
</svg>

<svg width="24" height="24" fill="none" xmlns="http://www.w3.org/2000/svg" viewBox="0 0 24 24"><path fill-rule="evenodd" clip-rule="evenodd" d="M8 3a1 1 0 00-2 0v1.126C4.275 4.57 3 6.136 3 8v10a4 4 0 004 4h10a4 4 0 004-4V8a4.002 4.002 0 00-3-3.874V3a1 1 0 10-2 0v1H8V3zm-3 7v8a2 2 0 002 2h10a2 2 0 002-2v-8H5z" fill="currentColor"></path></svg>
